adguard.svg

<svg viewBox="0 0 24 24" version="1.1" xmlns="http://www.w3.org/2000/svg" xmlns:xlink="http://www.w3.org/1999/xlink">
    <title>AdGuard</title>
        <path d="M11.5014739,0 C7.90634336,0 3.57155896,0.861 0,2.754 C0,6.846 -0.0471461596,17.034 11.5014739,24 C23.0530407,17.037 23,6.846 23,2.754 C19.4343356,0.861 15.0966044,0 11.5014739,0 Z" fill="#68BC71"></path>
        <path d="M11.4867397,23.994 C-0.0441993313,17.031 0.00294836053,6.84 0.00294836053,2.754 C3.56566531,0.864 7.89750287,0.003 11.4896865,0 L11.4896865,23.994 L11.4867397,23.994 Z" fill="#67B279"></path>
        <path d="M11.0800774,16.014 L18.0345921,6.474 C17.5247909,6.054 17.0798198,6.348 16.8322862,6.576 L16.8234457,6.576 L11.0270345,12.72 L8.84048792,10.044 C7.79731071,8.82 6.38283314,9.753 6.04984154,10.002 L11.0800774,16.017" fill="#FFFFFF"></path>
</svg>

<svg viewBox="0 0 24 24" xmlns="http://www.w3.org/2000/svg"><path d="M11.501 0C7.906 0 3.571.861 0 2.754 0 6.846-.047 17.034 11.501 24 23.053 17.037 23 6.846 23 2.754 19.434.861 15.097 0 11.501 0Z" fill="#68BC71"/><path d="M11.487 23.994C-.044 17.031.003 6.84.003 2.754 3.566.864 7.898.003 11.49 0v23.994h-.003Z" fill="#67B279"/><path d="m11.08 16.014 6.955-9.54c-.51-.42-.955-.126-1.203.102h-.009l-5.796 6.144-2.187-2.676c-1.043-1.224-2.457-.291-2.79-.042l5.03 6.015" fill="#FFF"/></svg>
